src/svg/Buildings.svg

<svg width="18398" height="209" fill="none" xmlns="http://www.w3.org/2000/svg"><path d="M16003.7 127.203h109.3V.0239258h-1280V166.178h81v-65.641h114.2v65.641h189.7v-13.539h67.1V55.4085h75.5v71.7945h143v38.975h80.5v-38.975h175.3v80.821h77.5v-27.898h45.2v-52.923h72.6V94.3829h49.1v32.8201z" fill="#252E3A"/><path d="M14764.5 127.203h92.5V.0239258h-1083V166.178h68.5v-65.641h96.7v65.641h160.5v-13.539h56.7V55.4085h63.9v71.7945h121v38.975h68.1v-38.975h148.4v80.821h65.5v-27.898h38.3v-52.923h61.3V94.3829h41.6v32.8201z" fill="#252E3A"/><path d="M15836.2 81.4905h107V44.4961h169.8V.0241394h-1280V106.678h234.1v87.37h123.7V81.4905h127.1v35.0265h159V71.6516h125.2v96.4214h108.9V53.5479h125.2v27.9426z" fill="#2A3342"/><path d="M14777.2 81.4666h107V44.4722h169.8V.00021362h-1280V106.654h234.1v87.37h123.7V81.4666h127.1v35.0264h159V71.6276h125.2v96.4214h108.9V53.524h125.2v27.9426z" fill="#2A3342"/><path d="M18288.7 127.203h109.3V.0239258h-1280V166.178h81v-65.641h114.2v65.641h189.7v-13.539h67.1V55.4085h75.5v71.7945h143v38.975h80.5v-38.975h175.3v80.821h77.5v-27.898h45.2v-52.923h72.6V94.3829h49.1v32.8201z" fill="#252E3A"/><path d="M17049.5 127.203h92.5V.0239258h-1083V166.178h68.5v-65.641h96.7v65.641h160.5v-13.539h56.7V55.4085h63.9v71.7945h121v38.975h68.1v-38.975h148.4v80.821h65.5v-27.898h38.3v-52.923h61.3V94.3829h41.6v32.8201z" fill="#252E3A"/><path d="M18121.2 81.4905h107V44.4961h169.8V.0241394h-1280V106.678h234.1v87.37h123.7V81.4905h127.1v35.0265h159V71.6516h125.2v96.4214h108.9V53.5479h125.2v27.9426z" fill="#2A3342"/><path d="M17062.2 81.4666h107V44.4722h169.8V.00021362h-1280V106.654h234.1v87.37h123.7V81.4666h127.1v35.0264h159V71.6276h125.2v96.4214h108.9V53.524h125.2v27.9426z" fill="#2A3342"/><path d="M11405.7 127.203h109.3V.0239258h-1280V166.178h81v-65.641h114.2v65.641h189.7v-13.539h67.1V55.4085h75.5v71.7945h143v38.975h80.5v-38.975h175.3v80.821h77.5v-27.898h45.2v-52.923h72.6V94.3829h49.1v32.8201z" fill="#252E3A"/><path d="M10166.5 127.203h92.5V.0239258H9176V166.178h68.5v-65.641h96.66v65.641h160.54v-13.539h56.73V55.4085h63.88v71.7945h121.04v38.975h68.08v-38.975h148.35v80.821h65.52v-27.898h38.3v-52.923h61.3V94.3829h41.6v32.8201z" fill="#252E3A"/><path d="M11238.2 81.4905h107V44.4961h169.8V.0241394h-1280V106.678h234.1v87.37h123.7V81.4905h127.1v35.0265h159V71.6516h125.2v96.4214h108.9V53.5479h125.2v27.9426z" fill="#2A3342"/><path d="M10179.2 81.4666h107V44.4722h169.8V.00021362H9176V106.654h234.11v87.37h123.68V81.4666h127.12v35.0264h159.02V71.6276h125.15v96.4214H10054V53.524h125.2v27.9426z" fill="#2A3342"/><path d="M13690.7 127.203h109.3V.0239258h-1280V166.178h81v-65.641h114.2v65.641h189.7v-13.539h67.1V55.4085h75.5v71.7945h143v38.975h80.5v-38.975h175.3v80.821h77.5v-27.898h45.2v-52.923h72.6V94.3829h49.1v32.8201z" fill="#252E3A"/><path d="M12451.5 127.203h92.5V.0239258h-1083V166.178h68.5v-65.641h96.7v65.641h160.5v-13.539h56.7V55.4085h63.9v71.7945h121v38.975h68.1v-38.975h148.4v80.821h65.5v-27.898h38.3v-52.923h61.3V94.3829h41.6v32.8201z" fill="#252E3A"/><path d="M13523.2 81.4905h107V44.4961h169.8V.0241394h-1280V106.678h234.1v87.37h123.7V81.4905h127.1v35.0265h159V71.6516h125.2v96.4214h108.9V53.5479h125.2v27.9426z" fill="#2A3342"/><path d="M12464.2 81.4666h107V44.4722h169.8V.00021362h-1280V106.654h234.1v87.37h123.7V81.4666h127.1v35.0264h159V71.6276h125.2v96.4214h108.9V53.524h125.2v27.9426z" fill="#2A3342"/><path d="M6827.73 127.203H6937V.0239258H5657V166.178h80.96v-65.641h114.24v65.641h189.74v-13.539H6109V55.4085h75.5v71.7945h143.05v38.975h80.46v-38.975h175.34v80.821h77.48v-27.898h45.2v-52.923h72.52V94.3829h49.18v32.8201z" fill="#252E3A"/><path d="M5588.54 127.203H5681V.0239258H4598V166.178h68.5v-65.641h96.66v65.641h160.54v-13.539h56.73V55.4085h63.88v71.7945h121.04v38.975h68.08v-38.975h148.35v80.821h65.56v-27.898h38.24v-52.923h61.36V94.3829h41.6v32.8201z" fill="#252E3A"/><path d="M6660.19 81.4905h106.99V44.4961H6937V.0241394H5657V106.678h234.11v87.37h123.68V81.4905h127.12v35.0265h159.02V71.6516h125.15v96.4214h108.96V53.5479h125.15v27.9426z" fill="#2A3342"/><path d="M5601.19 81.4666h106.99V44.4722H5878V.00021362H4598V106.654h234.11v87.37h123.68V81.4666h127.12v35.0264h159.02V71.6276h125.15v96.4214h108.96V53.524h125.15v27.9426z" fill="#2A3342"/><path d="M9112.73 127.203H9222V.0239258H7942V166.178h80.96v-65.641h114.24v65.641h189.74v-13.539H8394V55.4085h75.5v71.7945h143.05v38.975h80.46v-38.975h175.34v80.821h77.48v-27.898h45.2v-52.923h72.52V94.3829h49.18v32.8201z" fill="#252E3A"/><path d="M7873.54 127.203H7966V.0239258H6883V166.178h68.5v-65.641h96.66v65.641h160.54v-13.539h56.73V55.4085h63.88v71.7945h121.04v38.975h68.08v-38.975h148.35v80.821h65.56v-27.898h38.24v-52.923h61.36V94.3829h41.6v32.8201z" fill="#252E3A"/><path d="M8945.19 81.4905h106.99V44.4961H9222V.0241394H7942V106.678h234.11v87.37h123.68V81.4905h127.12v35.0265h159.02V71.6516h125.15v96.4214h108.96V53.5479h125.15v27.9426z" fill="#2A3342"/><path d="M7886.19 81.4666h106.99V44.4722H8163V.00021362H6883V106.654h234.11v87.37h123.68V81.4666h127.12v35.0264h159.02V71.6276h125.15v96.4214h108.96V53.524h125.15v27.9426z" fill="#2A3342"/><path d="M2229.73 127.203H2339V.0239258H1059V166.178h80.96v-65.641h114.24v65.641h189.74v-13.539H1511V55.4085h75.5v71.7945h143.05v38.975h80.46v-38.975h175.34v80.821h77.48v-27.898h45.2v-52.923h72.52V94.3829h49.18v32.8201z" fill="#252E3A"/><path d="M990.544 127.203H1083V.0239258H0V166.178h68.5018v-65.641h96.6592v65.641h160.537v-13.539h56.735V55.4085h63.879v71.7945h121.034v38.975h68.081v-38.975h148.351v80.821h65.56v-27.898h38.243v-52.923h61.357V94.3829h41.606v32.8201z" fill="#252E3A"/><path d="M2062.19 81.4905h106.99V44.4961H2339V.0241394H1059V106.678h234.11v87.37h123.68V81.4905h127.12v35.0265h159.02V71.6516h125.15v96.4214h108.96V53.5479h125.15v27.9426z" fill="#2A3342"/><path d="M1003.19 81.4666h106.99V44.4722H1280V.00021362H0V106.654h234.11v87.37h123.681V81.4666h127.117v35.0264h159.018V71.6276H769.08v96.4214h108.957V53.524h125.153v27.9426z" fill="#2A3342"/><path d="M4514.73 127.203H4624V.0239258H3344V166.178h80.96v-65.641h114.24v65.641h189.74v-13.539H3796V55.4085h75.5v71.7945h143.05v38.975h80.46v-38.975h175.34v80.821h77.48v-27.898h45.2v-52.923h72.52V94.3829h49.18v32.8201z" fill="#252E3A"/><path d="M3275.54 127.203H3368V.0239258H2285V166.178h68.5v-65.641h96.66v65.641h160.54v-13.539h56.73V55.4085h63.88v71.7945h121.04v38.975h68.08v-38.975h148.35v80.821h65.56v-27.898h38.24v-52.923h61.36V94.3829h41.6v32.8201z" fill="#252E3A"/><path d="M4347.19 81.4905h106.99V44.4961H4624V.0241394H3344V106.678h234.11v87.37h123.68V81.4905h127.12v35.0265h159.02V71.6516h125.15v96.4214h108.96V53.5479h125.15v27.9426z" fill="#2A3342"/><path d="M3288.19 81.4666h106.99V44.4722H3565V.00021362H2285V106.654h234.11v87.37h123.68V81.4666h127.12v35.0264h159.02V71.6276h125.15v96.4214h108.96V53.524h125.15v27.9426z" fill="#2A3342"/></svg>

<svg width="18398" height="209" viewBox="0 0 18398 209" fill="none" xmlns="http://www.w3.org/2000/svg">
<path d="M16003.7 127.203L16113 127.203V0.0239258L14833 0.0239258V166.178H14914V100.537L15028.2 100.537V166.178H15217.9V152.639L15285 152.639V55.4085H15360.5V127.203L15503.5 127.203V166.178H15584V127.203L15759.3 127.203V208.024H15836.8V180.126H15882V127.203L15954.6 127.203V94.3829H16003.7V127.203Z" fill="#252E3A"/>
<path d="M14764.5 127.203L14857 127.203V0.0239258L13774 0.0239258V166.178H13842.5V100.537L13939.2 100.537V166.178L14099.7 166.178V152.639H14156.4V55.4085L14220.3 55.4085V127.203L14341.3 127.203V166.178H14409.4V127.203L14557.8 127.203V208.024H14623.3V180.126H14661.6V127.203L14722.9 127.203V94.3829H14764.5V127.203Z" fill="#252E3A"/>
<path d="M15836.2 81.4905L15943.2 81.4905V44.4961L16113 44.4961V0.0241394L14833 0.0241394V106.678L15067.1 106.678V194.048H15190.8V81.4905L15317.9 81.4905V116.517L15476.9 116.517V71.6516L15602.1 71.6516V168.073H15711V53.5479L15836.2 53.5479V81.4905Z" fill="#2A3342"/>
<path d="M14777.2 81.4666L14884.2 81.4666V44.4722L15054 44.4722V0.000213623L13774 0.000213623V106.654L14008.1 106.654V194.024H14131.8V81.4666L14258.9 81.4666V116.493L14417.9 116.493V71.6276L14543.1 71.6276V168.049H14652V53.524L14777.2 53.524V81.4666Z" fill="#2A3342"/>
<path d="M18288.7 127.203L18398 127.203V0.0239258L17118 0.0239258V166.178H17199V100.537L17313.2 100.537V166.178H17502.9V152.639L17570 152.639V55.4085H17645.5V127.203L17788.5 127.203V166.178H17869V127.203L18044.3 127.203V208.024H18121.8V180.126H18167V127.203L18239.6 127.203V94.3829H18288.7V127.203Z" fill="#252E3A"/>
<path d="M17049.5 127.203L17142 127.203V0.0239258L16059 0.0239258V166.178H16127.5V100.537L16224.2 100.537V166.178L16384.7 166.178V152.639H16441.4V55.4085L16505.3 55.4085V127.203L16626.3 127.203V166.178H16694.4V127.203L16842.8 127.203V208.024H16908.3V180.126H16946.6V127.203L17007.9 127.203V94.3829H17049.5V127.203Z" fill="#252E3A"/>
<path d="M18121.2 81.4905L18228.2 81.4905V44.4961L18398 44.4961V0.0241394L17118 0.0241394V106.678L17352.1 106.678V194.048H17475.8V81.4905L17602.9 81.4905V116.517L17761.9 116.517V71.6516L17887.1 71.6516V168.073H17996V53.5479L18121.2 53.5479V81.4905Z" fill="#2A3342"/>
<path d="M17062.2 81.4666L17169.2 81.4666V44.4722L17339 44.4722V0.000213623L16059 0.000213623V106.654L16293.1 106.654V194.024H16416.8V81.4666L16543.9 81.4666V116.493L16702.9 116.493V71.6276L16828.1 71.6276V168.049H16937V53.524L17062.2 53.524V81.4666Z" fill="#2A3342"/>
<path d="M11405.7 127.203L11515 127.203V0.0239258L10235 0.0239258V166.178H10316V100.537L10430.2 100.537V166.178H10619.9V152.639L10687 152.639V55.4085H10762.5V127.203L10905.5 127.203V166.178H10986V127.203L11161.3 127.203V208.024H11238.8V180.126H11284V127.203L11356.6 127.203V94.3829H11405.7V127.203Z" fill="#252E3A"/>
<path d="M10166.5 127.203L10259 127.203V0.0239258L9176 0.0239258V166.178H9244.5V100.537L9341.16 100.537V166.178L9501.7 166.178V152.639H9558.43V55.4085L9622.31 55.4085V127.203L9743.35 127.203V166.178H9811.43V127.203L9959.78 127.203V208.024H10025.3V180.126H10063.6V127.203L10124.9 127.203V94.3829H10166.5V127.203Z" fill="#252E3A"/>
<path d="M11238.2 81.4905L11345.2 81.4905V44.4961L11515 44.4961V0.0241394L10235 0.0241394V106.678L10469.1 106.678V194.048H10592.8V81.4905L10719.9 81.4905V116.517L10878.9 116.517V71.6516L11004.1 71.6516V168.073H11113V53.5479L11238.2 53.5479V81.4905Z" fill="#2A3342"/>
<path d="M10179.2 81.4666L10286.2 81.4666V44.4722L10456 44.4722V0.000213623L9176 0.000213623V106.654L9410.11 106.654V194.024H9533.79V81.4666L9660.91 81.4666V116.493L9819.93 116.493V71.6276L9945.08 71.6276V168.049H10054V53.524L10179.2 53.524V81.4666Z" fill="#2A3342"/>
<path d="M13690.7 127.203L13800 127.203V0.0239258L12520 0.0239258V166.178H12601V100.537L12715.2 100.537V166.178H12904.9V152.639L12972 152.639V55.4085H13047.5V127.203L13190.5 127.203V166.178H13271V127.203L13446.3 127.203V208.024H13523.8V180.126H13569V127.203L13641.6 127.203V94.3829H13690.7V127.203Z" fill="#252E3A"/>
<path d="M12451.5 127.203L12544 127.203V0.0239258L11461 0.0239258V166.178H11529.5V100.537L11626.2 100.537V166.178L11786.7 166.178V152.639H11843.4V55.4085L11907.3 55.4085V127.203L12028.3 127.203V166.178H12096.4V127.203L12244.8 127.203V208.024H12310.3V180.126H12348.6V127.203L12409.9 127.203V94.3829H12451.5V127.203Z" fill="#252E3A"/>
<path d="M13523.2 81.4905L13630.2 81.4905V44.4961L13800 44.4961V0.0241394L12520 0.0241394V106.678L12754.1 106.678V194.048H12877.8V81.4905L13004.9 81.4905V116.517L13163.9 116.517V71.6516L13289.1 71.6516V168.073H13398V53.5479L13523.2 53.5479V81.4905Z" fill="#2A3342"/>
<path d="M12464.2 81.4666L12571.2 81.4666V44.4722L12741 44.4722V0.000213623L11461 0.000213623V106.654L11695.1 106.654V194.024H11818.8V81.4666L11945.9 81.4666V116.493L12104.9 116.493V71.6276L12230.1 71.6276V168.049H12339V53.524L12464.2 53.524V81.4666Z" fill="#2A3342"/>
<path d="M6827.73 127.203L6937 127.203V0.0239258L5657 0.0239258V166.178H5737.96V100.537L5852.2 100.537V166.178H6041.94V152.639L6109 152.639V55.4085H6184.5V127.203L6327.55 127.203V166.178H6408.01V127.203L6583.35 127.203V208.024H6660.83V180.126H6706.03V127.203L6778.55 127.203V94.3829H6827.73V127.203Z" fill="#252E3A"/>
<path d="M5588.54 127.203L5681 127.203V0.0239258L4598 0.0239258V166.178H4666.5V100.537L4763.16 100.537V166.178L4923.7 166.178V152.639H4980.43V55.4085L5044.31 55.4085V127.203L5165.35 127.203V166.178H5233.43V127.203L5381.78 127.203V208.024H5447.34V180.126H5485.58V127.203L5546.94 127.203V94.3829H5588.54V127.203Z" fill="#252E3A"/>
<path d="M6660.19 81.4905L6767.18 81.4905V44.4961L6937 44.4961V0.0241394L5657 0.0241394V106.678L5891.11 106.678V194.048H6014.79V81.4905L6141.91 81.4905V116.517L6300.93 116.517V71.6516L6426.08 71.6516V168.073H6535.04V53.5479L6660.19 53.5479V81.4905Z" fill="#2A3342"/>
<path d="M5601.19 81.4666L5708.18 81.4666V44.4722L5878 44.4722V0.000213623L4598 0.000213623V106.654L4832.11 106.654V194.024H4955.79V81.4666L5082.91 81.4666V116.493L5241.93 116.493V71.6276L5367.08 71.6276V168.049H5476.04V53.524L5601.19 53.524V81.4666Z" fill="#2A3342"/>
<path d="M9112.73 127.203L9222 127.203V0.0239258L7942 0.0239258V166.178H8022.96V100.537L8137.2 100.537V166.178H8326.94V152.639L8394 152.639V55.4085H8469.5V127.203L8612.55 127.203V166.178H8693.01V127.203L8868.35 127.203V208.024H8945.83V180.126H8991.03V127.203L9063.55 127.203V94.3829H9112.73V127.203Z" fill="#252E3A"/>
<path d="M7873.54 127.203L7966 127.203V0.0239258L6883 0.0239258V166.178H6951.5V100.537L7048.16 100.537V166.178L7208.7 166.178V152.639H7265.43V55.4085L7329.31 55.4085V127.203L7450.35 127.203V166.178H7518.43V127.203L7666.78 127.203V208.024H7732.34V180.126H7770.58V127.203L7831.94 127.203V94.3829H7873.54V127.203Z" fill="#252E3A"/>
<path d="M8945.19 81.4905L9052.18 81.4905V44.4961L9222 44.4961V0.0241394L7942 0.0241394V106.678L8176.11 106.678V194.048H8299.79V81.4905L8426.91 81.4905V116.517L8585.93 116.517V71.6516L8711.08 71.6516V168.073H8820.04V53.5479L8945.19 53.5479V81.4905Z" fill="#2A3342"/>
<path d="M7886.19 81.4666L7993.18 81.4666V44.4722L8163 44.4722V0.000213623L6883 0.000213623V106.654L7117.11 106.654V194.024H7240.79V81.4666L7367.91 81.4666V116.493L7526.93 116.493V71.6276L7652.08 71.6276V168.049H7761.04V53.524L7886.19 53.524V81.4666Z" fill="#2A3342"/>
<path d="M2229.73 127.203L2339 127.203V0.0239258L1059 0.0239258V166.178H1139.96V100.537L1254.2 100.537V166.178H1443.94V152.639L1511 152.639V55.4085H1586.5V127.203L1729.55 127.203V166.178H1810.01V127.203L1985.35 127.203V208.024H2062.83V180.126H2108.03V127.203L2180.55 127.203V94.3829H2229.73V127.203Z" fill="#252E3A"/>
<path d="M990.544 127.203L1083 127.203V0.0239258L0 0.0239258V166.178H68.5018V100.537L165.161 100.537V166.178L325.698 166.178V152.639H382.433V55.4085L446.312 55.4085V127.203L567.346 127.203V166.178H635.427V127.203L783.778 127.203V208.024H849.338V180.126H887.581V127.203L948.938 127.203V94.3829H990.544V127.203Z" fill="#252E3A"/>
<path d="M2062.19 81.4905L2169.18 81.4905V44.4961L2339 44.4961V0.0241394L1059 0.0241394V106.678L1293.11 106.678V194.048H1416.79V81.4905L1543.91 81.4905V116.517L1702.93 116.517V71.6516L1828.08 71.6516V168.073H1937.04V53.5479L2062.19 53.5479V81.4905Z" fill="#2A3342"/>
<path d="M1003.19 81.4666L1110.18 81.4666V44.4722L1280 44.4722V0.000213623L0 0.000213623V106.654L234.11 106.654V194.024H357.791V81.4666L484.908 81.4666V116.493L643.926 116.493V71.6276L769.08 71.6276V168.049H878.037V53.524L1003.19 53.524V81.4666Z" fill="#2A3342"/>
<path d="M4514.73 127.203L4624 127.203V0.0239258L3344 0.0239258V166.178H3424.96V100.537L3539.2 100.537V166.178H3728.94V152.639L3796 152.639V55.4085H3871.5V127.203L4014.55 127.203V166.178H4095.01V127.203L4270.35 127.203V208.024H4347.83V180.126H4393.03V127.203L4465.55 127.203V94.3829H4514.73V127.203Z" fill="#252E3A"/>
<path d="M3275.54 127.203L3368 127.203V0.0239258L2285 0.0239258V166.178H2353.5V100.537L2450.16 100.537V166.178L2610.7 166.178V152.639H2667.43V55.4085L2731.31 55.4085V127.203L2852.35 127.203V166.178H2920.43V127.203L3068.78 127.203V208.024H3134.34V180.126H3172.58V127.203L3233.94 127.203V94.3829H3275.54V127.203Z" fill="#252E3A"/>
<path d="M4347.19 81.4905L4454.18 81.4905V44.4961L4624 44.4961V0.0241394L3344 0.0241394V106.678L3578.11 106.678V194.048H3701.79V81.4905L3828.91 81.4905V116.517L3987.93 116.517V71.6516L4113.08 71.6516V168.073H4222.04V53.5479L4347.19 53.5479V81.4905Z" fill="#2A3342"/>
<path d="M3288.19 81.4666L3395.18 81.4666V44.4722L3565 44.4722V0.000213623L2285 0.000213623V106.654L2519.11 106.654V194.024H2642.79V81.4666L2769.91 81.4666V116.493L2928.93 116.493V71.6276L3054.08 71.6276V168.049H3163.04V53.524L3288.19 53.524V81.4666Z" fill="#2A3342"/>
</svg>
